svg/fluentui-system-icons/ic_fluent_weather_partly_cloudy_night_20_filled.svg

<svg width="20" height="20" viewBox="0 0 20 20" fill="none" xmlns="http://www.w3.org/2000/svg">
<path d="M11 7C13.4646 7 14.8627 8.5736 15.066 10.474L15.1282 10.474C16.7143 10.474 18 11.711 18 13.237C18 14.763 16.7143 16 15.1282 16H6.87179C5.28575 16 4 14.763 4 13.237C4 11.7675 5.19227 10.566 6.69687 10.479L6.93399 10.474C7.13851 8.56111 8.53544 7 11 7ZM5.84302 3.00094C6.50882 3.03665 7.1553 3.22853 7.73824 3.56509C8.75213 4.15046 9.43372 5.09034 9.71685 6.13776C7.99266 6.51836 6.75381 7.67837 6.2485 9.27924L6.18416 9.50024L6.13789 9.68717L5.97261 9.7174C5.08317 9.90057 4.30856 10.3943 3.77324 11.079C3.6766 11.0346 3.58086 10.9841 3.48635 10.9296C2.93571 10.6116 2.46827 10.1799 2.11115 9.66136C1.87709 9.32142 2.02852 8.85194 2.41712 8.71287C3.79256 8.22059 4.53364 7.66658 4.95748 6.85745C5.42037 5.97387 5.50588 5.03678 5.19856 3.77778C5.09864 3.36827 5.42211 2.97835 5.84302 3.00094Z" fill="#212121"/>
</svg>

<svg xmlns="http://www.w3.org/2000/svg" width="20" height="20"><path d="M11 7c2.465 0 3.863 1.574 4.066 3.474h.062c1.586 0 2.872 1.237 2.872 2.763C18 14.763 16.714 16 15.128 16H6.872C5.286 16 4 14.763 4 13.237c0-1.47 1.192-2.671 2.697-2.758l.237-.005C7.139 8.561 8.535 7 11 7ZM5.843 3a4.236 4.236 0 0 1 1.895.565 4.238 4.238 0 0 1 1.979 2.573c-1.724.38-2.963 1.54-3.469 3.141l-.064.221-.046.187-.165.03a3.754 3.754 0 0 0-2.2 1.362 4.24 4.24 0 0 1-1.662-1.418.629.629 0 0 1 .306-.948c1.376-.492 2.117-1.046 2.54-1.856.463-.883.549-1.82.242-3.08a.628.628 0 0 1 .644-.776Z"/></svg>
